icons-dark/places/64/network-workgroup.svg

<svg width="64" height="64" version="1.1" xmlns="http://www.w3.org/2000/svg">
 <defs>
  <linearGradient id="a" x2="0" y1="58" y2="16" gradientUnits="userSpaceOnUse">
   <stop stop-color="#3daee9" offset="0"/>
   <stop stop-color="#6cc1ef" offset="1"/>
  </linearGradient>
 </defs>
 <path d="m60 33v-23h-28l-4-4-24 1.1e-4v27z" fill="#147eb8"/>
 <path d="m22 20h-19v38h58v-42h-35z" fill="url(#a)"/>
 <g fill-opacity=".24">
  <g fill="#fff">
   <path d="m31 11h29v-1h-28l-4-4z"/>
   <path d="m3 20v1h20s3-5 3-5l-4 4h-19"/>
  </g>
  <g>
   <path d="m3 57v1h58v-1h-58"/>
   <path d="m4 19v1h18l4-4-6 3h-16"/>
  </g>
 </g>
 <path d="m22 27v20h20v-20zm1 1h18v2h-18zm1 3h1v4h-1zm2 0h1v4h-1zm2 0h1v4h-1zm2 0h1v4h-1zm2 0h1v4h-1zm2 0h1v4h-1zm2 0h1v4h-1zm3 1h2v1h-2zm-16 4h18v2h-18zm1 3h1v4h-1zm2 0h1v4h-1zm2 0h1v4h-1zm2 0h1v4h-1zm2 0h1v4h-1zm2 0h1v4h-1zm2 0h1v4h-1zm3 1h2v1h-2zm-16 4h18v2h-18z" fill="#1272a5"/>
</svg>

<?xml version="1.0" encoding="UTF-8" standalone="no"?>

<!-- Created with Inkscape (http://www.inkscape.org/) -->
<svg width="64" version="1.1" xmlns="http://www.w3.org/2000/svg" height="64" xmlns:xlink="http://www.w3.org/1999/xlink" xmlns:inkscape="http://www.inkscape.org/namespaces/inkscape">
 <defs id="defs5455">
  <linearGradient inkscape:collect="always" id="linearGradient4172-9">
   <stop style="stop-color:#3daee9" id="stop4174-7"/>
   <stop offset="1" style="stop-color:#6cc1ef" id="stop4176-9"/>
  </linearGradient>
  <linearGradient inkscape:collect="always" id="linearGradient4178-9" xlink:href="#linearGradient4172-9" y1="541.79797" y2="499.78421" gradientUnits="userSpaceOnUse" x2="0" gradientTransform="matrix(1 0 0 0.99967455 0 0.17645)"/>
 </defs>
 <metadata id="metadata5458"/>
 <g inkscape:label="Capa 1" inkscape:groupmode="layer" id="layer1" transform="matrix(1 0 0 1 -384.57143 -483.798)">
  <g inkscape:label="Capa 1" id="layer1-5" transform="matrix(1 0 0 1 0 0.000005)">
   <path inkscape:connector-curvature="0" style="fill:#147eb8" id="rect4180-0" d="m 388.57143,489.79812 0,5 0,22 c 0,0.55373 0.446,1 1,1 l 54,0 c 0.55399,0 1,-0.44627 1,-1 l 0,-21.99023 c 0,-0.003 -0.002,-0.006 -0.002,-0.01 l 0.002,0 0,-1 -28,0 -4,-4 -24,0 z"/>
   <path inkscape:connector-curvature="0" style="fill:url(#linearGradient4178-9)" id="rect4113-6" d="m 410.57143,499.79812 -4,4 -19,0 0,1 0.002,0 c -5e-5,0.004 -0.002,0.008 -0.002,0.0117 l 0,35.98828 0,1 1,0 56,0 1,0 0,-1 0,-35.98828 0,-0.0117 0,-5 z"/>
   <path inkscape:connector-curvature="0" style="fill:#ffffff;fill-opacity:0.235294;fill-rule:evenodd" id="path4224" d="m 387.57144,503.79812 0,1 19.99999,0 3,-5 -4,4 z"/>
   <path inkscape:connector-curvature="0" style="fill-opacity:0.235294;fill-rule:evenodd" id="path4228" d="m 388.57143,502.79812 0,1 18,0 4,-4 -6,3 z"/>
   <path inkscape:connector-curvature="0" style="fill-opacity:0.235294" id="path4151-2-6" d="m 387.57143,540.7981 0,1 1,0 56,0 1,0 0,-1 -1,0 -56,0 -1,0 z"/>
   <path inkscape:connector-curvature="0" style="fill:#ffffff;fill-opacity:0.235294;fill-rule:evenodd" id="path4196-9" d="m 28,6 3,5 2,0 27,0 0,-1 -27,0 -1,0 z" transform="matrix(1 0 0 1 384.57143 483.798)"/>
  </g>
  <path style="fill:#1272a5" id="rect4173" d="M 22 27 L 22 47 L 42 47 L 42 27 L 22 27 z M 23 28 L 41 28 L 41 30 L 23 30 L 23 28 z M 24 31 L 25 31 L 25 35 L 24 35 L 24 31 z M 26 31 L 27 31 L 27 35 L 26 35 L 26 31 z M 28 31 L 29 31 L 29 35 L 28 35 L 28 31 z M 30 31 L 31 31 L 31 35 L 30 35 L 30 31 z M 32 31 L 33 31 L 33 35 L 32 35 L 32 31 z M 34 31 L 35 31 L 35 35 L 34 35 L 34 31 z M 36 31 L 37 31 L 37 35 L 36 35 L 36 31 z M 39 32 L 41 32 L 41 33 L 39 33 L 39 32 z M 23 36 L 41 36 L 41 38 L 23 38 L 23 36 z M 24 39 L 25 39 L 25 43 L 24 43 L 24 39 z M 26 39 L 27 39 L 27 43 L 26 43 L 26 39 z M 28 39 L 29 39 L 29 43 L 28 43 L 28 39 z M 30 39 L 31 39 L 31 43 L 30 43 L 30 39 z M 32 39 L 33 39 L 33 43 L 32 43 L 32 39 z M 34 39 L 35 39 L 35 43 L 34 43 L 34 39 z M 36 39 L 37 39 L 37 43 L 36 43 L 36 39 z M 39 40 L 41 40 L 41 41 L 39 41 L 39 40 z M 23 44 L 41 44 L 41 46 L 23 46 L 23 44 z " transform="matrix(1 0 0 1 384.57143 483.798)"/>
 </g>
</svg>
